X:725
T:a Friend in Need
A:Wyresdale, Lancashire
B:H.S.J. Jackson, 1823
L:1/8
M:6/8
O:England
Z:Richard Robinson 
%%TUNEURL: http://www.leeds.ac.uk/music/Info/RRTuneBk/gettune/000005c0.html
%%ID:000005c0
K:D
A |\
d2f afd | e2f g2b | a2g fed | cde A2A | \
d2f e2g | f2d g2b | agf edc | d3 d2 ||
f|\
afd afd | A2d f2a | g2f e2d | cec A2c |\
dfa afd | ege g2b | agf edc | d3 d2 ::
%page:84
